X: 814
M: 6/4
L: 1/4
K: D
d2(A B/c/d)A | d3 A2B | =c>dc cGE | =c3 E2B/c/ |\
d2A (B/c/d)A | d3 A2G | FDF ECE | D3- D2 :|
|: F/G/ |\

